X: 1
T: Blue Bonnets
R: jig
Z: 1997 by John Chambers <jc:trillian.mit.edu>
M: 6/8
L: 1/8
K: D
|: "D"D>DD F2A | d2d d2A | "C"=c>dd "G"d2B |  "D"A>FD "A7"E>FE \
|  "D"D>DD F2A | d2d d2A | "G"B>AG  "D"FGA | "Em"B<dF "A7"E3 :|
|: "D"D>FA AFD | "G"BAG "D"FED |    DFA "Bm"Bcd | "Em"D>EF "A7"E2D \
|  "D"D>FA AFD | "G"BAG "D"FED | "G"d>cB "D"AFD | "Em"D>EF "A7"E3 :|
